X: 3
T: The Concertina
R: reel
M: 4/4
L: 1/8
K: Dmaj
|:A2FA BAFG|A2FA BAFA|B2cA BAcA|BAcA BAFG|A2FA BAFG|A2FA BAFE|FABc dedB|AFEF D4:||:Ad ~d2 Ad ~d2|AddA BAFA|B2cA BAcA|BAcA BAFG|Ad ~d2 Ad ~d2|Addc d3B|A2FA BcdB|AFEF D4:|


Tune 18	Setting 29382

